X:1
T:Title
%%score { ( 1 3 ) | ( 2 4 ) }
L:1/8
Q:1/4=88
M:4/4
K:A
V:1 treble nm="Grand Piano"
V:3 treble 
V:2 bass 
V:4 bass 
V:1
 [CE]2 [CE][CE] F2 F2 | E2 E2 [CE]4 | [CE]2 [CA][EG] [DF]2 [DF]2 | %3
w: George~Whelpton * * * *|||
[M:17/16] z/ z/ z .B3/2 z/ z/ z/ z/ z/ z/ z/ z/ z |[M:4/4] z [CE][CE][CE] F2 F2 | %5
w: ||
 z2 D2[K:bass] z4 | E2 EE[K:treble] E2 E2 |[M:8/4] [CE]8 z8 |[M:4/4] [DF]8 | [CE]8 |] %10
w: |||||
V:2
 [A,,A,]2 [A,,A,][A,,A,] [D,A,D]2 [D,A,D]2 | [E,A,C]2 [E,G,B,]2 [A,,A,]4 | %2
 [A,,A,]2 [A,,A,][C,A,] [D,A,]2 [D,A,]2 |[M:17/16] z/ z/ z/ z/ z/ z/ z [B,E]-<[B,E] z/ z/ z/ z | %4
[M:4/4] z [A,,A,][A,,A,][A,,A,] [D,A,D]2 [D,A,D]2 | [E,A,C]2 .[E,G,B,]2 [F,A,]4 | %6
 [E,G,B,]2 [E,G,B,][E,A,C] [E,B,D]2 [E,G,B,]2 |[M:8/4] [A,,A,]8 z8 |[M:4/4] [D,A,]8 | [A,,A,]8 |] %10
V:3
 x8 | x8 | x8 |[M:17/16] [^DF]-<[DF]D-[DA]G-<GFE3/2 |[M:4/4] x8 | E2 z[K:bass] ^E, C4 | %6
 x4[K:treble] x4 |[M:8/4] x16 |[M:4/4] x8 | x8 |] %10
V:4
 x8 | x8 | x8 |[M:17/16] [B,,B,]-<[B,,B,][B,,B,]-<[B,,B,]E,-<E,-[E,G,D]/-[E,G,D]-<[E,G,D] | %4
[M:4/4] x8 | x8 | x8 |[M:8/4] x16 |[M:4/4] x8 | x8 |] %10

